X:1
T:Title
%%score { ( 1 4 ) | ( 2 3 ) }
L:1/8
M:4/4
K:A
V:1 treble nm="Grand Piano"
V:4 treble 
V:2 bass 
V:3 bass 
V:1
 z4 z2[Q:1/4=108] [CE]2 | [CE]2 [Ec]2 [Ec]dBc | [A,CA]4 [A,CE]2 [A,E]2 | %3
 [A,DF]2 [A,EA]2 [DG]2 [CA]2 | [EB]6 [DE]2 | [CE]2 [Ec]2 [Ec]dBc | [A,A]2- [A,EA]2 [A,FA]2 [EG]F | %7
 E2 A2 c2 B2 | [CA]6 c2 | d3 c B2 [EB]2 | e3 d [Ec]2 c2 | d2 B2 c2 [A^d]2 | [Ge]6 [Ed]2 | %13
 [Ec]2 [Ec]2 [Ec]dBc | [A,A]2- [A,EA]2 [A,FA]2 [EG]F | E2 A2 c2 B2 |[M:3/4] [CA]6 | %17
[M:1/4] [Ac]>[Bd] |[M:4/4] e6 z2 | [EAc]>[DEB] [CEA]>[A,DF] [A,CE]2 c>c | B6 z2 | c6 z2 | e6 z2 | %23
 [EAc]>[DEB] [CEA]>[A,DF] [A,CE]2 [Ec]>[CEc] | [EGB]2 [EBd]2 [EAc]>[EAc] [DEB]>[DEB] | %25
[M:3/4] [CEA]6 |] %26
V:2
 z4 z2 [A,,A,]2 | [A,,A,]2 [A,,A,]2 z FDE | A,,4 A,,2 C,2 | D,2 C,2 [B,,E,]2 [A,,A,]2 | %4
 [E,G,]6 [E,G,]2 | [A,,A,]2 [A,,A,]2 z FDE | z4 z2 [D,A,]2 | [E,A,C]2 [E,A,C]2 [E,A,E]2 [E,G,D]2 | %8
 [A,,A,]6 [A,E]2 | [E,B,E]3 [E,A,E] [E,G,E]2 [D,G,]2 | [C,A,]3 [B,,G,] [A,,A,]2 [A,E]2 | %11
 [G,B,E]2 [G,B,E]2 [A,E]2 [F,B,]2 | [E,B,]6 [E,B,]2 | [A,,A,]2 [A,,A,]2 z FDE | z4 z2 [D,A,]2 | %15
 [E,A,C]2 [E,A,C]2 [E,A,E]2 [E,G,D]2 |[M:3/4] [A,,A,]6 |[M:1/4][K:treble] [A,E]>[A,D] | %18
[M:4/4] [A,CA]2 [A,C]>[A,D] [A,E]>[A,DA] [A,CA]>[A,FA] | A,,>A,, A,,>A,, A,,2[K:treble] A>A | %20
 G6[K:bass][K:treble] z2 | A6 z2 | [A,CA]2 [A,C]>[A,D] [A,E]>[A,DA] [A,CA]>[A,FA] | %23
 A,,>A,, A,,>A,, A,,2 A,>A, | E,2 E,2 E,>E, E,>E, |[M:3/4] A,,6 |] %26
V:3
 x8 | z4 [E,A,]2 [E,G,]2 | x8 | x8 | x8 | z4 [E,A,]2 [E,G,]2 | A,,2 C,2 D,2 z D | x8 | x8 | x8 | %10
 x8 | x8 | x8 | z4 [E,A,]2 [E,G,]2 | A,,2 B,,2 D,2 z D | x8 |[M:3/4] x6 |[M:1/4][K:treble] x2 | %18
[M:4/4] x8 | x6[K:treble] x2 | z2[K:bass] E,>E, E,2[K:treble] c>B | z2 A,>A, A,2 [A,EA]>[A,DB] | %22
 x8 | x8 | x8 |[M:3/4] x6 |] %26
V:4
 x8 | x8 | x8 | x8 | x8 | x8 | C2 z2 z4 | x8 | x8 | x8 | E4 z4 | x8 | x8 | x8 | C2 z2 z4 | x8 | %16
[M:3/4] x6 |[M:1/4] x2 |[M:4/4] z2 A>B c>f e>d | x8 | z2 E>E E2 e>d | z2 E>E E2 c>d | %22
 z2 A>B c>f e>d | x8 | x8 |[M:3/4] x6 |] %26

